Newaita-dark/.places-blue/scalable/folder-script.svg

<?xml version="1.0" encoding="UTF-8"?>
<svg xmlns="http://www.w3.org/2000/svg" xmlns:xlink="http://www.w3.org/1999/xlink" width="512pt" height="512pt" viewBox="0 0 512 512" version="1.1">
<defs>
<linearGradient id="linear0" gradientUnits="userSpaceOnUse" x1="254" y1="233.5" x2="254" y2="254.666672" gradientTransform="matrix(1.000095,0,0,1.000095,-0.000061041,215.020562)">
<stop offset="0" style="stop-color:rgb(0%,0%,0%);stop-opacity:0.27451;"/>
<stop offset="1" style="stop-color:rgb(0%,0%,0%);stop-opacity:0;"/>
</linearGradient>
<radialGradient id="radial0" gradientUnits="userSpaceOnUse" cx="450.908936" cy="189.579361" fx="450.908936" fy="189.579361" r="21.166656" gradientTransform="matrix(0.00000278673,-1.250119,-2.250215,-0.00000162462,865.843403,1017.525321)">
<stop offset="0" style="stop-color:rgb(0%,0%,0%);stop-opacity:0.313725;"/>
<stop offset="0.222222" style="stop-color:rgb(0%,0%,0%);stop-opacity:0.27451;"/>
<stop offset="1" style="stop-color:rgb(0%,0%,0%);stop-opacity:0;"/>
</radialGradient>
<radialGradient id="radial1" gradientUnits="userSpaceOnUse" cx="450.908936" cy="189.579361" fx="450.908936" fy="189.579361" r="21.166656" gradientTransform="matrix(-0.00000278673,1.250119,2.250215,0.00000162462,-357.794846,-120.439662)">
<stop offset="0" style="stop-color:rgb(0%,0%,0%);stop-opacity:0.313725;"/>
<stop offset="0.222222" style="stop-color:rgb(0%,0%,0%);stop-opacity:0.27451;"/>
<stop offset="1" style="stop-color:rgb(0%,0%,0%);stop-opacity:0;"/>
</radialGradient>
<radialGradient id="radial2" gradientUnits="userSpaceOnUse" cx="450.908936" cy="189.579361" fx="450.908936" fy="189.579361" r="21.166656" gradientTransform="matrix(-0.00000278673,-1.250119,2.250215,-0.00000162462,-357.794846,1017.525321)">
<stop offset="0" style="stop-color:rgb(0%,0%,0%);stop-opacity:0.313725;"/>
<stop offset="0.222222" style="stop-color:rgb(0%,0%,0%);stop-opacity:0.27451;"/>
<stop offset="1" style="stop-color:rgb(0%,0%,0%);stop-opacity:0;"/>
</radialGradient>
<radialGradient id="radial3" gradientUnits="userSpaceOnUse" cx="450.908936" cy="189.579361" fx="450.908936" fy="189.579361" r="21.166656" gradientTransform="matrix(0.00000278673,1.250119,-2.250215,0.00000162462,865.843372,-120.43967)">
<stop offset="0" style="stop-color:rgb(0%,0%,0%);stop-opacity:0.313725;"/>
<stop offset="0.222222" style="stop-color:rgb(0%,0%,0%);stop-opacity:0.27451;"/>
<stop offset="1" style="stop-color:rgb(0%,0%,0%);stop-opacity:0;"/>
</radialGradient>
<linearGradient id="linear1" gradientUnits="userSpaceOnUse" x1="296.333344" y1="233.5" x2="296.333344" y2="-147.5" gradientTransform="matrix(1.000095,0,0,1.000095,0,215.020531)">
<stop offset="0" style="stop-color:rgb(12.941176%,58.823529%,95.294118%);stop-opacity:1;"/>
<stop offset="1" style="stop-color:rgb(25.882353%,64.705882%,96.078431%);stop-opacity:1;"/>
</linearGradient>
<linearGradient id="linear2" gradientUnits="userSpaceOnUse" x1="254" y1="-147.5" x2="254" y2="233.5" gradientTransform="matrix(1.000095,0,0,1.000095,0,215.020527)">
<stop offset="0" style="stop-color:rgb(39.215686%,70.980392%,96.470588%);stop-opacity:1;"/>
<stop offset="1" style="stop-color:rgb(25.882353%,64.705882%,96.078431%);stop-opacity:1;"/>
</linearGradient>
<linearGradient id="linear3" gradientUnits="userSpaceOnUse" x1="880" y1="1695.11731" x2="880" y2="255.117249" gradientTransform="matrix(0.264583,0,0,0.264583,-0.00000333333,-214.999756)">
<stop offset="0" style="stop-color:rgb(12.941176%,58.823529%,95.294118%);stop-opacity:1;"/>
<stop offset="1" style="stop-color:rgb(25.882353%,64.705882%,96.078431%);stop-opacity:1;"/>
</linearGradient>
</defs>
<g id="surface1">
<path style=" stroke:none;fill-rule:nonzero;fill:url(#linear0);" d="M 63.507812 448.542969 L 444.542969 448.542969 L 444.542969 469.710938 L 63.507812 469.710938 Z M 63.507812 448.542969 "/>
<path style=" stroke:none;fill-rule:nonzero;fill:url(#radial0);" d="M 444.542969 448.542969 L 486.878906 448.542969 L 486.878906 427.375 L 444.542969 427.375 Z M 444.542969 448.542969 "/>
<path style=" stroke:none;fill-rule:nonzero;fill:url(#radial1);" d="M 63.507812 448.542969 L 21.167969 448.542969 L 21.167969 469.710938 L 63.507812 469.710938 Z M 63.507812 448.542969 "/>
<path style=" stroke:none;fill-rule:nonzero;fill:url(#radial2);" d="M 63.507812 448.542969 L 21.167969 448.542969 L 21.167969 427.375 L 63.507812 427.375 Z M 63.507812 448.542969 "/>
<path style=" stroke:none;fill-rule:nonzero;fill:url(#radial3);" d="M 444.542969 448.542969 L 486.878906 448.542969 L 486.878906 469.710938 L 444.542969 469.710938 Z M 444.542969 448.542969 "/>
<path style=" stroke:none;fill-rule:nonzero;fill:url(#linear1);" d="M 116.429688 67.507812 L 460.417969 67.507812 C 472.109375 67.507812 481.585938 76.984375 481.585938 88.675781 L 481.585938 168.058594 C 481.585938 179.75 472.109375 189.226562 460.417969 189.226562 L 116.429688 189.226562 C 104.738281 189.226562 95.257812 179.75 95.257812 168.058594 L 95.257812 88.675781 C 95.257812 76.984375 104.738281 67.507812 116.429688 67.507812 Z M 116.429688 67.507812 "/>
<path style=" stroke:none;fill-rule:nonzero;fill:rgb(90.196079%,90.196079%,90.196079%);fill-opacity:0.588235;" d="M 116.429688 67.507812 C 104.699219 67.507812 95.257812 76.949219 95.257812 88.675781 L 95.257812 91.320312 C 95.257812 79.59375 104.699219 70.152344 116.429688 70.152344 L 460.417969 70.152344 C 472.144531 70.152344 481.585938 79.59375 481.585938 91.320312 L 481.585938 88.675781 C 481.585938 76.949219 472.144531 67.507812 460.417969 67.507812 Z M 116.429688 67.507812 "/>
<path style=" stroke:none;fill-rule:nonzero;fill:rgb(12.941177%,12.941177%,12.941177%);fill-opacity:1;" d="M 116.425781 66.007812 C 103.894531 66.007812 93.757812 76.140625 93.757812 88.675781 L 93.757812 168.058594 C 93.757812 180.589844 103.894531 190.726562 116.425781 190.726562 L 460.417969 190.726562 C 472.953125 190.726562 483.085938 180.589844 483.085938 168.058594 L 483.085938 88.675781 C 483.085938 76.140625 472.953125 66.007812 460.417969 66.007812 Z M 116.425781 69.007812 L 460.417969 69.007812 C 471.339844 69.007812 480.085938 77.753906 480.085938 88.675781 L 480.085938 168.058594 C 480.085938 178.980469 471.339844 187.726562 460.417969 187.726562 L 116.425781 187.726562 C 105.503906 187.726562 96.757812 178.980469 96.757812 168.058594 L 96.757812 88.675781 C 96.757812 77.753906 105.503906 69.007812 116.425781 69.007812 Z M 116.425781 69.007812 "/>
<path style=" stroke:none;fill-rule:nonzero;fill:url(#linear2);" d="M 42.335938 109.84375 C 30.609375 109.84375 21.167969 119.285156 21.167969 131.011719 L 21.167969 427.375 C 21.167969 439.101562 30.609375 448.542969 42.335938 448.542969 L 465.710938 448.542969 C 477.4375 448.542969 486.878906 439.101562 486.878906 427.375 L 486.878906 162.765625 L 201.101562 162.765625 C 189.375 162.765625 179.933594 153.324219 179.933594 141.597656 L 179.933594 109.84375 Z M 42.335938 109.84375 "/>
<path style=" stroke:none;fill-rule:nonzero;fill:rgb(0%,0%,0%);fill-opacity:0.196078;" d="M 42.335938 448.542969 C 30.609375 448.542969 21.167969 439.101562 21.167969 427.375 L 21.167969 424.726562 C 21.167969 436.457031 30.609375 445.898438 42.335938 445.898438 L 465.710938 445.898438 C 477.4375 445.898438 486.878906 436.457031 486.878906 424.726562 L 486.878906 427.375 C 486.878906 439.101562 477.4375 448.542969 465.710938 448.542969 Z M 42.335938 448.542969 "/>
<path style=" stroke:none;fill-rule:nonzero;fill:rgb(90.196079%,90.196079%,90.196079%);fill-opacity:0.937255;" d="M 42.335938 109.84375 C 30.609375 109.84375 21.167969 119.285156 21.167969 131.011719 L 21.167969 133.660156 C 21.167969 121.929688 30.609375 112.488281 42.335938 112.488281 L 179.933594 112.488281 L 179.933594 109.84375 Z M 42.335938 109.84375 "/>
<path style=" stroke:none;fill-rule:nonzero;fill:rgb(90.196079%,90.196079%,90.196079%);fill-opacity:0.937255;" d="M 199.78125 164.089844 C 188.050781 164.089844 178.609375 154.648438 178.609375 142.917969 L 178.609375 140.273438 C 178.609375 152 188.050781 161.464844 199.78125 161.441406 L 486.878906 161.441406 L 486.878906 164.089844 Z M 199.78125 164.089844 "/>
<path style=" stroke:none;fill-rule:nonzero;fill:rgb(12.941177%,12.941177%,12.941177%);fill-opacity:1;" d="M 42.335938 108.34375 C 29.804688 108.34375 19.667969 118.480469 19.667969 131.011719 L 19.667969 427.375 C 19.667969 439.90625 29.804688 450.042969 42.335938 450.042969 L 465.710938 450.042969 C 478.242188 450.042969 488.378906 439.90625 488.378906 427.375 L 488.378906 159.765625 L 201.101562 159.765625 C 190.179688 159.765625 181.433594 151.019531 181.433594 140.097656 L 181.433594 108.34375 Z M 42.335938 111.34375 L 178.433594 111.34375 L 178.433594 140.097656 C 178.433594 152.628906 188.570312 162.765625 201.101562 162.765625 L 485.378906 162.765625 L 485.378906 427.375 C 485.378906 438.296875 476.632812 447.042969 465.710938 447.042969 L 42.335938 447.042969 C 31.414062 447.042969 22.667969 438.296875 22.667969 427.375 L 22.667969 131.011719 C 22.667969 120.089844 31.414062 111.34375 42.335938 111.34375 Z M 42.335938 111.34375 "/>
<path style="fill-rule:nonzero;fill:url(#linear3);stroke-width:3;stroke-linecap:round;stroke-linejoin:miter;stroke:rgb(12.941177%,12.941177%,12.941177%);stroke-opacity:1;stroke-miterlimit:4;" d="M 198.516199 -10.679668 C 195.809426 -10.679668 193.106559 -9.640705 191.032539 -7.57059 L 183.548878 -0.0869294 C 179.400837 4.061112 179.400837 10.736256 183.548878 14.880391 L 243.418161 74.749674 L 183.548878 134.618957 C 179.400837 138.763092 179.400837 145.438236 183.548878 149.586277 L 191.032539 157.069938 C 195.176674 161.214073 201.851818 161.214073 205.999859 157.069938 L 273.348896 89.716995 L 280.836463 82.233334 C 284.980598 78.089199 284.980598 71.414055 280.836463 67.266014 L 273.348896 59.782353 L 205.999859 -7.57059 C 203.925839 -9.640705 201.219066 -10.679668 198.516199 -10.679668 Z M 264.584108 127.666496 C 258.721387 127.666496 253.999182 132.388701 253.999182 138.251422 L 253.999182 148.832443 C 253.999182 154.695165 258.721387 159.41737 264.584108 159.41737 L 317.50093 159.41737 C 323.363652 159.41737 328.081951 154.695165 328.081951 148.832443 L 328.081951 138.251422 C 328.081951 132.388701 323.363652 127.666496 317.50093 127.666496 Z M 264.584108 127.666496 " transform="matrix(1.000095,0,0,1.000095,0,215.020531)"/>
</g>
</svg>

<svg xmlns="http://www.w3.org/2000/svg" width="512pt" height="512pt" viewBox="0 0 512 512"><defs><linearGradient id="a" gradientUnits="userSpaceOnUse" x1="254" y1="233.5" x2="254" y2="254.667" gradientTransform="matrix(1.0001 0 0 1.0001 0 215.02)"><stop offset="0" stop-opacity=".275"/><stop offset="1" stop-opacity="0"/></linearGradient><radialGradient id="b" gradientUnits="userSpaceOnUse" cx="450.909" cy="189.579" fx="450.909" fy="189.579" r="21.167" gradientTransform="matrix(0 -1.25012 -2.25021 0 865.843 1017.525)"><stop offset="0" stop-opacity=".314"/><stop offset=".222" stop-opacity=".275"/><stop offset="1" stop-opacity="0"/></radialGradient><radialGradient id="c" gradientUnits="userSpaceOnUse" cx="450.909" cy="189.579" fx="450.909" fy="189.579" r="21.167" gradientTransform="matrix(0 1.25012 2.25021 0 -357.795 -120.44)"><stop offset="0" stop-opacity=".314"/><stop offset=".222" stop-opacity=".275"/><stop offset="1" stop-opacity="0"/></radialGradient><radialGradient id="d" gradientUnits="userSpaceOnUse" cx="450.909" cy="189.579" fx="450.909" fy="189.579" r="21.167" gradientTransform="matrix(0 -1.25012 2.25021 0 -357.795 1017.525)"><stop offset="0" stop-opacity=".314"/><stop offset=".222" stop-opacity=".275"/><stop offset="1" stop-opacity="0"/></radialGradient><radialGradient id="e" gradientUnits="userSpaceOnUse" cx="450.909" cy="189.579" fx="450.909" fy="189.579" r="21.167" gradientTransform="matrix(0 1.25012 -2.25021 0 865.843 -120.44)"><stop offset="0" stop-opacity=".314"/><stop offset=".222" stop-opacity=".275"/><stop offset="1" stop-opacity="0"/></radialGradient><linearGradient id="f" gradientUnits="userSpaceOnUse" x1="296.333" y1="233.5" x2="296.333" y2="-147.5" gradientTransform="matrix(1.0001 0 0 1.0001 0 215.02)"><stop offset="0" stop-color="#2196f3"/><stop offset="1" stop-color="#42a5f5"/></linearGradient><linearGradient id="g" gradientUnits="userSpaceOnUse" x1="254" y1="-147.5" x2="254" y2="233.5" gradientTransform="matrix(1.0001 0 0 1.0001 0 215.02)"><stop offset="0" stop-color="#64b5f6"/><stop offset="1" stop-color="#42a5f5"/></linearGradient><linearGradient id="h" gradientUnits="userSpaceOnUse" x1="880" y1="1695.117" x2="880" y2="255.117" gradientTransform="matrix(.26458 0 0 .26458 0 -215)"><stop offset="0" stop-color="#2196f3"/><stop offset="1" stop-color="#42a5f5"/></linearGradient></defs><path d="M63.508 448.543h381.035v21.168H63.508zm0 0" fill="url(#a)"/><path d="M444.543 448.543h42.336v-21.168h-42.336zm0 0" fill="url(#b)"/><path d="M63.508 448.543h-42.34v21.168h42.34zm0 0" fill="url(#c)"/><path d="M63.508 448.543h-42.34v-21.168h42.34zm0 0" fill="url(#d)"/><path d="M444.543 448.543h42.336v21.168h-42.336zm0 0" fill="url(#e)"/><path d="M116.43 67.508h343.988c11.691 0 21.168 9.476 21.168 21.168v79.383c0 11.691-9.477 21.168-21.168 21.168H116.43c-11.692 0-21.172-9.477-21.172-21.168V88.676c0-11.692 9.48-21.168 21.172-21.168zm0 0" fill="url(#f)"/><path d="M116.43 67.508a21.123 21.123 0 0 0-21.172 21.168v2.644a21.123 21.123 0 0 1 21.172-21.168h343.988a21.122 21.122 0 0 1 21.168 21.168v-2.644a21.122 21.122 0 0 0-21.168-21.168zm0 0" fill="#e6e6e6" fill-opacity=".588"/><path d="M116.426 66.008c-12.531 0-22.668 10.133-22.668 22.668v79.383c0 12.53 10.137 22.668 22.668 22.668h343.992c12.535 0 22.668-10.137 22.668-22.668V88.676c0-12.535-10.133-22.668-22.668-22.668zm0 3h343.992a19.592 19.592 0 0 1 19.668 19.668v79.383a19.592 19.592 0 0 1-19.668 19.668H116.426a19.592 19.592 0 0 1-19.668-19.668V88.676a19.592 19.592 0 0 1 19.668-19.668zm0 0" fill="#212121"/><path d="M42.336 109.844a21.122 21.122 0 0 0-21.168 21.168v296.363a21.122 21.122 0 0 0 21.168 21.168H465.71a21.122 21.122 0 0 0 21.168-21.168v-264.61H201.102a21.122 21.122 0 0 1-21.168-21.167v-31.754zm0 0" fill="url(#g)"/><path d="M42.336 448.543a21.122 21.122 0 0 1-21.168-21.168v-2.648a21.123 21.123 0 0 0 21.168 21.171H465.71a21.123 21.123 0 0 0 21.168-21.171v2.648a21.122 21.122 0 0 1-21.168 21.168zm0 0" fill-opacity=".196"/><path d="M42.336 109.844a21.122 21.122 0 0 0-21.168 21.168v2.648a21.123 21.123 0 0 1 21.168-21.172h137.598v-2.644zm0 0M199.781 164.09a21.124 21.124 0 0 1-21.172-21.172v-2.645c0 11.727 9.442 21.192 21.172 21.168H486.88v2.649zm0 0" fill="#e6e6e6" fill-opacity=".937"/><path d="M42.336 108.344c-12.531 0-22.668 10.136-22.668 22.668v296.363c0 12.531 10.137 22.668 22.668 22.668H465.71c12.531 0 22.668-10.137 22.668-22.668v-267.61H201.102a19.592 19.592 0 0 1-19.668-19.667v-31.754zm0 3h136.098v28.754c0 12.53 10.136 22.668 22.668 22.668h284.277v264.609a19.592 19.592 0 0 1-19.668 19.668H42.336a19.592 19.592 0 0 1-19.668-19.668V131.012a19.592 19.592 0 0 1 19.668-19.668zm0 0" fill="#212121"/><path d="M198.516-10.68c-2.707 0-5.41 1.04-7.483 3.11l-7.484 7.483a10.557 10.557 0 0 0 0 14.967l59.87 59.87-59.87 59.869a10.557 10.557 0 0 0 0 14.967l7.484 7.484a10.564 10.564 0 0 0 14.967 0l67.349-67.353 7.487-7.484a10.564 10.564 0 0 0 0-14.967l-7.487-7.484-67.35-67.353a10.568 10.568 0 0 0-7.483-3.109zm66.068 138.346A10.563 10.563 0 0 0 254 138.251v10.581a10.563 10.563 0 0 0 10.585 10.585h52.917a10.56 10.56 0 0 0 10.581-10.585v-10.58a10.56 10.56 0 0 0-10.581-10.586zm0 0" transform="matrix(1.0001 0 0 1.0001 0 215.02)" fill="url(#h)" stroke-width="3" stroke-linecap="round" stroke="#212121"/></svg>
